images/downloads-icon-1.svg

<svg width="36" height="43" fill="none" xmlns="http://www.w3.org/2000/svg"><path d="M.5 43h35v-5H.5v5zm35-27.5h-10V.5h-15v15H.5L18 33l17.5-17.5z" fill="#2EA844"/></svg>

<svg width="36" height="43" viewBox="0 0 36 43" fill="none" xmlns="http://www.w3.org/2000/svg">
<path d="M0.5 43H35.5V38H0.5V43ZM35.5 15.5H25.5V0.5H10.5V15.5H0.5L18 33L35.5 15.5Z" fill="#2EA844"/>
</svg>
